X:1
T:Title
%%score { ( 1 4 5 ) | ( 2 3 ) }
L:1/8
M:3/4
K:C
V:1 treble nm="Grand Piano"
V:4 treble 
V:5 treble 
V:2 bass 
V:3 bass 
V:1
 z2 z2[Q:1/4=100] G2 | [EG]3 E [FA]G | [EG]2 [DF]2 [DF]2 | [DF]3 D [EG]F |[M:2/4] [CE]4 | %5
[M:1/4] [EG]2 |[M:3/4] [FA]3 c [GB]A | [FA]2 [EG]2 [EA]2 | [DB]3 A [B,G]^F | [B,G]4 [FG]2 | %10
[M:4/4] E2 E2 z ABc | c2- [Fc-][Fc] [FB]2 z2 | F6 z2 | A4 z4 | [CE]6 z2 | [EG]4 z4 | %16
 D4- D-[DG]A^F |[M:9/8] G2- [EG]- [EG-] [FG]2- [FG] z z |[M:4/4] G2- [EG-]2 GABc | %19
 c2- [Fc-][Fc] [FB]2 z2 | F6 z2 | A4 z4 | [Ge]6 z2 |[M:9/8] ddc- c A2- A A2 | %24
[M:4/4] z4 G4[Q:1/4=99][Q:1/4=97][Q:1/4=96][Q:1/4=94][Q:1/4=93][Q:1/4=91][Q:1/4=90][Q:1/4=88][Q:1/4=87][Q:1/4=85][Q:1/4=84][Q:1/4=82][Q:1/4=81][Q:1/4=79][Q:1/4=78][Q:1/4=76] | %25
[M:7/8] [DFG][CEG] [B,DG]2 [CEG]3 |] %26
V:2
 z2 z2 E2 | C,2 z C z E | ^C,2 A,2 D,2 | G,,2 z B, z D |[M:2/4] C,2 G,2 |[M:1/4] C,2 | %6
[M:3/4] F,2[K:treble] z A[K:bass] z F | C,2 C2 C,2 | D,2 z C z A, | z2 z2 [B,D]2 | %10
[M:4/4] [C,C]2 [C,C]2 [C,C]2 z2 | [D,G,]2 [D,G,][D,G,] [D,G,]2[K:treble] B2 | %12
 G,,2 G,,2 z[K:treble] GAB | C,2 C,C, C,2 C,2 | C,2 C,2 z E^C,C, | D,2 D,2 [D,A,D]2 D2 | %16
 D,2 D,2 z B,CA, |[M:9/8] z2 C- C D2- D z z |[M:4/4] [C,C]2 [C,C]2 [C,C]2 z2 | %19
 [D,G,]2 [D,G,][D,G,] [D,G,]2[K:treble] B2 | G,,2 G,,2 z[K:treble] GAB | %21
 [C,C]2 [C,C][C,C] [C,C]2 z2 | [C,C]2 C,2 C,D,[G,E][K:treble][_B,G] | %23
[M:9/8] [F,A,F][F,A,F][F,A,F]- [F,A,F][K:bass] [F,CF]2- [F,CF] [F,CF]2 | %24
[M:4/4] [G,CE][G,CE] [G,CE]2 [B,D]2 C2 |[M:7/8] G,,G,, G,,2 C,3 |] %26
V:3
 x6 | z2 G,2 C,2 | x6 | z2 G,2 B,,2 |[M:2/4] x4 |[M:1/4] x2 |[M:3/4] z2[K:treble] C2[K:bass] F,2 | %7
 x6 | z2 ^F,2 D,2 | [G,,D,]6 |[M:4/4] x8 | x6[K:treble] x2 | z4 G,,2[K:treble] z2 | x8 | %14
 z4 C,2 z2 | x8 | z4 D,2 [D,D]2 |[M:9/8] G,,6- G,, z z |[M:4/4] x8 | x6[K:treble] x2 | %20
 z4 G,,2[K:treble] z2 | x8 | z4 z2 E,2[K:treble] |[M:9/8] x4[K:bass] x5 |[M:4/4] z4 G,4 | %25
[M:7/8] x7 |] %26
V:4
 x6 | x6 | x6 | x6 |[M:2/4] x4 |[M:1/4] x2 |[M:3/4] x6 | x6 | x6 | x6 |[M:4/4] G6 z2 | F2 z2 z4 | %12
 [B,D]2 [B,D]2 [B,D]2 z2 | [CE]2 [CE][CE] [CEG]2 [G,E]2 | G,2 G,2 z G[A,EA][A,E] | A,2 A,2 F2 F2 | %16
 [A,^F]6 z2 |[M:9/8] .[B,D]3 z3 z3 |[M:4/4] E2 z2 E2 z2 | F2 z2 z4 | [B,D]2 [B,D]2 [B,D]2 z2 | %21
 E2 EE [EG]2 [EG]2 | z2 C2 z [Fd]cc |[M:9/8] x9 |[M:4/4] GG G2 z2 E2 |[M:7/8] x7 |] %26
V:5
 x6 | x6 | x6 | x6 |[M:2/4] x4 |[M:1/4] x2 |[M:3/4] x6 | x6 | x6 | x6 |[M:4/4] z4 E2 z2 | x8 | x8 | %13
 x8 | z4 _B,2 z2 | x8 | x8 |[M:9/8] x9 |[M:4/4] x8 | x8 | x8 | x8 | z4 C2 z2 |[M:9/8] x9 | %24
[M:4/4] x8 |[M:7/8] x7 |] %26

